img/logos/mariadb.svg

<?xml version="1.0" encoding="UTF-8" standalone="no"?>
<svg width="256px" height="170px" viewBox="0 0 256 170" version="1.1" xmlns="http://www.w3.org/2000/svg" xmlns:xlink="http://www.w3.org/1999/xlink" preserveAspectRatio="xMinYMin meet">
	<g>
		<path d="M250.391638,0.00446862369 C246.441675,0.130682345 247.690863,1.26880888 239.155816,3.36921556 C230.536983,5.49024566 220.008925,4.83986124 210.727768,8.73228955 C183.021866,20.351627 177.463048,60.0648737 152.275749,74.2909368 C133.44887,84.9252955 114.454287,85.7734716 97.3770448,91.1247628 C86.1542572,94.6439652 73.8775566,101.861116 63.7093926,110.623574 C55.8167711,117.427461 55.6106931,123.409835 47.3641472,131.94346 C38.5434001,141.071213 12.3067939,132.097702 0.415983224,146.067884 C4.24645595,149.940996 5.92576646,151.025838 13.4744129,150.020946 C11.9115659,152.983116 2.69890233,155.479419 4.50229457,159.836976 C6.39984964,164.42206 28.6722079,167.530243 48.9187222,155.306501 C58.3477968,149.613736 65.8580959,141.408437 80.5432186,139.449836 C99.5463429,136.917034 121.437616,141.074426 143.43688,144.24681 C140.174937,153.972942 133.625839,160.44104 128.379711,168.187265 C126.755136,169.936917 131.642705,170.133045 137.21858,169.075594 C147.248876,166.59538 154.477397,164.598418 162.047364,160.192308 C171.347098,154.778478 172.756356,140.898537 184.166744,137.895261 C190.524334,147.666875 207.815514,149.975122 218.54506,142.159239 C209.130198,139.494252 206.528135,119.454271 209.70619,110.623574 C212.716558,102.264758 215.69108,88.8936369 218.722725,77.8442509 C221.977561,65.9776028 223.178339,51.0207794 227.117429,44.9760945 C233.043861,35.8817563 239.592335,32.7587342 245.277595,27.6305201 C250.962841,22.5023059 256.166669,17.510397 255.995897,5.77598898 C255.940891,1.99639972 253.986654,-0.110417131 250.391638,0.00446862369 L250.391638,0.00446862369 L250.391638,0.00446862369 Z" fill="#002B64"></path>
		<path d="M8.59429122,159.000881 C23.012219,161.066067 31.7803771,159.000881 43.3584961,153.979338 C53.2097044,149.706833 62.7240586,140.898877 74.3576093,137.165055 C91.4433653,131.683002 110.179281,137.172162 128.443316,138.266583 C132.890644,138.533792 137.309545,138.536635 141.671594,138.061911 C148.475479,133.880371 148.334769,118.238682 154.956725,116.805986 C154.762003,138.751254 145.765012,151.899938 136.355836,164.632173 C156.186171,161.130027 168.052819,149.659929 176.067675,134.340881 C178.499564,129.695989 180.57612,124.698608 182.412473,119.461023 C185.25086,121.639915 183.64192,128.268978 185.068931,131.860668 C198.727871,124.252312 206.549426,106.887975 211.728736,89.3260752 C217.721046,69.0011179 220.174254,48.420322 224.038839,42.4066929 C227.811037,36.536618 233.681112,32.9179227 239.03951,29.1599376 C245.128469,24.8874326 250.559354,20.4344193 251.49743,12.2930657 C245.07588,11.6989516 243.590595,10.2136662 242.641149,6.97730766 C239.42611,8.78949791 236.469753,9.17751982 233.129638,9.27701262 C230.231554,9.36513481 227.047785,9.23579417 223.159038,9.63518669 C190.998702,12.9383476 186.912391,48.3847888 166.298904,68.4794913 C164.799406,69.9406141 163.177673,71.3036654 161.463554,72.5828586 C154.244641,77.9625763 145.38836,81.8072623 137.244164,84.9199655 C124.061369,89.9571438 111.528119,90.3153178 99.1597425,94.6631531 C90.080314,97.8540293 80.854489,102.483287 73.3967931,107.587268 C71.5320138,108.862197 69.7752553,110.168395 68.159208,111.490228 C63.7829462,115.070547 60.910447,119.043152 58.1317553,123.129463 C55.2663627,127.340852 52.4990416,131.673053 48.280547,135.811953 C41.4468131,142.522032 15.9112758,137.769119 6.92139088,143.991683 C5.91935628,144.683868 5.1234139,145.515343 4.58188881,146.513114 C9.48688374,148.741752 12.7630394,147.374437 18.4057024,147.9984 C19.1462131,153.352533 6.76362374,156.534881 8.59429122,159.000881 L8.59429122,159.000881 L8.59429122,159.000881 Z" fill="#FFFFFF"></path>
		<path d="M203.435102,120.426045 C203.81886,126.569015 207.384967,138.756883 210.533202,141.718926 C204.367492,143.218424 193.745925,140.741054 191.021244,136.391797 C192.42125,130.11238 199.706965,124.371646 203.435102,120.426045 L203.435102,120.426045 L203.435102,120.426045 Z" fill="#FFFFFF"></path>
		<path d="M212.467627,22.9347869 C217.020133,26.8874937 226.572863,23.7150948 224.865851,15.8508998 C217.791913,15.2653135 213.694231,17.6659326 212.467627,22.9347869 L212.467627,22.9347869 L212.467627,22.9347869 Z" fill="#002B64"></path>
		<path d="M244.207251,13.744495 C242.996281,16.2844041 240.678099,19.5591385 240.678099,26.024749 C240.66815,27.1348043 239.835253,27.8952136 239.82104,26.1839375 C239.883578,19.8647235 241.556479,17.1329355 243.333136,13.5426668 C244.158926,12.0715948 244.65639,12.6785008 244.207251,13.744495 L244.207251,13.744495 L244.207251,13.744495 Z" fill="#002B64"></path>
		<path d="M242.987754,12.7879429 C241.559321,15.2113032 238.119713,19.631626 237.551182,26.073074 C237.446004,27.1774441 236.547727,27.8611017 236.684175,26.1540896 C237.303872,19.8661448 240.052716,15.930494 242.139222,12.5093631 C243.085825,11.1178852 243.5307,11.7660098 242.987754,12.7879429 L242.987754,12.7879429 L242.987754,12.7879429 Z" fill="#002B64"></path>
		<path d="M241.876277,11.5201204 C240.248859,13.8141401 234.954421,19.1227915 233.847208,25.4945946 C233.648222,26.5847513 232.695934,27.1930787 232.975935,25.5031225 C234.121524,19.2876652 238.685401,14.4025688 241.051908,11.1718956 C242.112217,9.86285464 242.500239,10.5465123 241.876277,11.5201204 L241.876277,11.5201204 L241.876277,11.5201204 Z" fill="#002B64"></path>
		<path d="M240.884192,10.1059014 C238.951188,12.1483464 232.639081,18.9181206 230.649226,25.0696181 C230.296737,26.1213991 229.269117,26.5904366 229.785059,24.955912 C231.791971,18.963603 237.319506,12.5093631 240.116676,9.64397048 C241.351807,8.49696065 241.638915,9.22894338 240.884192,10.1059014 L240.884192,10.1059014 L240.884192,10.1059014 Z" fill="#002B64"></path>
	</g>
</svg>

<svg width="256" height="170" viewBox="0 0 256 170" xmlns="http://www.w3.org/2000/svg" preserveAspectRatio="xMinYMin meet"><path d="M250.392.004c-3.95.127-2.7 1.265-11.236 3.365-8.62 2.12-19.147 1.47-28.428 5.362-27.706 11.62-33.265 51.333-58.452 65.56-18.827 10.633-37.822 11.48-54.9 16.833-11.222 3.52-23.498 10.736-33.667 19.5-7.893 6.802-8.1 12.785-16.346 21.318-8.82 9.128-35.057.155-46.948 14.125 3.83 3.873 5.51 4.958 13.058 3.953-1.562 2.963-10.775 5.46-8.972 9.817 1.898 4.585 24.17 7.693 44.417-4.53 9.428-5.693 16.938-13.9 31.623-15.857 19.003-2.533 40.895 1.624 62.894 4.797-3.262 9.726-9.81 16.194-15.057 23.94-1.625 1.75 3.263 1.946 8.84.89 10.03-2.482 17.257-4.48 24.827-8.885 9.3-5.414 10.71-19.293 22.12-22.297 6.357 9.772 23.65 12.08 34.378 4.264-9.415-2.666-12.017-22.706-8.84-31.536 3.012-8.36 5.986-21.73 9.018-32.78 3.255-11.866 4.455-26.823 8.394-32.868 5.927-9.094 12.475-12.217 18.16-17.345 5.686-5.128 10.89-10.12 10.72-21.854-.056-3.78-2.01-5.886-5.605-5.772z" fill="#002B64"/><path d="M8.594 159c14.418 2.066 23.186 0 34.764-5.02 9.852-4.273 19.366-13.08 31-16.815 17.085-5.482 35.82.007 54.085 1.102 4.448.267 8.867.27 13.23-.205 6.802-4.182 6.662-19.823 13.284-21.256-.195 21.945-9.192 35.094-18.6 47.826 19.83-3.502 31.696-14.972 39.71-30.29 2.433-4.646 4.51-9.643 6.345-14.88 2.84 2.178 1.23 8.807 2.657 12.4 13.658-7.61 21.48-24.974 26.66-42.536 5.99-20.325 8.444-40.906 12.31-46.92 3.77-5.87 9.64-9.488 15-13.246 6.088-4.273 11.52-8.726 12.457-16.867-6.42-.594-7.906-2.08-8.856-5.316-3.214 1.812-6.17 2.2-9.51 2.3-2.898.088-6.082-.04-9.97.358C191 12.938 186.91 48.385 166.3 68.48c-1.5 1.46-3.122 2.824-4.836 4.103-7.22 5.38-16.076 9.224-24.22 12.337-13.183 5.037-25.716 5.395-38.084 9.743-9.08 3.19-18.306 7.82-25.763 12.924-1.865 1.275-3.622 2.58-5.238 3.903-4.377 3.58-7.25 7.553-10.028 11.64-2.866 4.21-5.633 8.543-9.85 12.682-6.835 6.71-32.37 1.957-41.36 8.18-1.003.692-1.8 1.523-2.34 2.52 4.905 2.23 8.18.862 13.824 1.486.74 5.355-11.642 8.537-9.812 11.003zM203.435 120.426c.384 6.143 3.95 18.33 7.098 21.293-6.166 1.498-16.787-.98-19.512-5.328 1.4-6.28 8.687-12.02 12.415-15.966z" fill="#FFF"/><path d="M212.468 22.935c4.552 3.952 14.105.78 12.398-7.084-7.074-.585-11.172 1.816-12.398 7.085zM244.207 13.744c-1.21 2.54-3.53 5.815-3.53 12.28-.01 1.11-.842 1.87-.856.16.064-6.32 1.736-9.05 3.513-12.64.826-1.472 1.323-.865.874.2z" fill="#002B64"/><path d="M242.988 12.788c-1.43 2.423-4.868 6.844-5.437 13.285-.104 1.104-1.002 1.788-.866.08.62-6.287 3.37-10.223 5.455-13.644.946-1.392 1.39-.744.848.278zM241.876 11.52c-1.627 2.294-6.922 7.603-8.03 13.975-.198 1.09-1.15 1.698-.87.008 1.146-6.215 5.71-11.1 8.076-14.33 1.06-1.31 1.448-.626.824.347zM240.884 10.106c-1.933 2.042-8.245 8.812-10.235 14.964-.353 1.05-1.38 1.52-.865-.114 2.007-5.992 7.535-12.447 10.332-15.312 1.235-1.147 1.522-.415.767.462z" fill="#002B64"/></svg>
